X:3
T:The Boy's Lament for his Dragon
T: 72nd's Farewell to Aberdeen
C:William MacKay
M:4/4
R:reel
Q:1/2=120
L:1/8
K:D
cB|"D"A2d2 d2ef|"A"gfed "D"f4|"Em"g2B2 B2cd|"A"efed dcBA|
"D"A2d2 d2ef|"A"gfed "D"f4|"Em"g2B2 "A"cdec|"D"d4 d2::fg|"D"a2A2 A2"C"=c2|
"G"B2G2 "D"A3B|"D"A2d2 dcde|"Em"f2e2 "A"e2fg|
"D"a2A2 A2"C"=c2|"G"B2G2 "D"A3B|"D"A2d2 "A"fedc|"D"d4 d2:|
